svgs/gboard.svg

<svg width="192" height="192" viewBox="0 0 192 192" fill="none" xmlns="http://www.w3.org/2000/svg">
<path fill-rule="evenodd" clip-rule="evenodd" d="M64 28C62.8954 28 62 28.8954 62 30V79.5424C62 80.2352 62.3585 80.8787 62.9477 81.2432L96 101.694L129.052 81.2432C129.641 80.8787 130 80.2352 130 79.5424V30C130 28.8954 129.105 28 128 28H64ZM50 30C50 22.268 56.268 16 64 16H128C135.732 16 142 22.268 142 30V79.5424C142 84.3919 139.49 88.8961 135.366 91.4477L101.262 112.55C98.0375 114.545 93.9624 114.545 90.7383 112.55L56.6336 91.4477C52.5097 88.896 50 84.3919 50 79.5424V30ZM32 90C29.7909 90 28 91.7909 28 94V162C28 164.209 29.7909 166 32 166H160C162.209 166 164 164.209 164 162V94C164 91.7909 162.209 90 160 90H156C152.686 90 150 87.3137 150 84C150 80.6863 152.686 78 156 78H160C168.837 78 176 85.1634 176 94V162C176 170.837 168.837 178 160 178H32C23.1635 178 16 170.837 16 162V94C16 85.1634 23.1634 78 32 78H36C39.3137 78 42 80.6863 42 84C42 87.3137 39.3137 90 36 90H32ZM81 59C81 50.7157 87.7157 44 96 44C100.143 44 103.888 45.6746 106.607 48.3934C108.169 49.9555 110.701 49.9555 112.263 48.3934C113.826 46.8313 113.826 44.2986 112.263 42.7365C108.106 38.5787 102.35 36 96 36C83.2975 36 73 46.2975 73 59C73 71.7025 83.2975 82 96 82C108.703 82 119 71.7025 119 59C119 56.7909 117.209 55 115 55H96C93.7909 55 92 56.7909 92 59C92 61.2091 93.7909 63 96 63H110.461C108.71 69.3424 102.899 74 96 74C87.7157 74 81 67.2843 81 59ZM56 152C56 148.686 58.6863 146 62 146H130C133.314 146 136 148.686 136 152C136 155.314 133.314 158 130 158H62C58.6863 158 56 155.314 56 152ZM48 138C52.4183 138 56 134.418 56 130C56 125.582 52.4183 122 48 122C43.5817 122 40 125.582 40 130C40 134.418 43.5817 138 48 138ZM56 106C56 110.418 52.4183 114 48 114C43.5817 114 40 110.418 40 106C40 101.582 43.5817 98 48 98C52.4183 98 56 101.582 56 106ZM72 138C76.4183 138 80 134.418 80 130C80 125.582 76.4183 122 72 122C67.5817 122 64 125.582 64 130C64 134.418 67.5817 138 72 138ZM128 130C128 134.418 124.418 138 120 138C115.582 138 112 134.418 112 130C112 125.582 115.582 122 120 122C124.418 122 128 125.582 128 130ZM144 138C148.418 138 152 134.418 152 130C152 125.582 148.418 122 144 122C139.582 122 136 125.582 136 130C136 134.418 139.582 138 144 138ZM152 106C152 110.418 148.418 114 144 114C139.582 114 136 110.418 136 106C136 101.582 139.582 98 144 98C148.418 98 152 101.582 152 106ZM96 138C100.418 138 104 134.418 104 130C104 125.582 100.418 122 96 122C91.5817 122 88 125.582 88 130C88 134.418 91.5817 138 96 138Z" fill="black"/>
</svg>

<svg width="192" height="192" fill="none" xmlns="http://www.w3.org/2000/svg"><path fill-rule="evenodd" clip-rule="evenodd" d="M64 28a2 2 0 0 0-2 2v49.542a2 2 0 0 0 .948 1.701L96 101.694l33.052-20.45a2 2 0 0 0 .948-1.702V30a2 2 0 0 0-2-2H64zm-14 2c0-7.732 6.268-14 14-14h64c7.732 0 14 6.268 14 14v49.542a14 14 0 0 1-6.634 11.906l-34.104 21.102a10 10 0 0 1-10.524 0L56.634 91.448A14 14 0 0 1 50 79.542V30zM32 90a4 4 0 0 0-4 4v68a4 4 0 0 0 4 4h128a4 4 0 0 0 4-4V94a4 4 0 0 0-4-4h-4a6 6 0 1 1 0-12h4c8.837 0 16 7.163 16 16v68c0 8.837-7.163 16-16 16H32c-8.837 0-16-7.163-16-16V94c0-8.837 7.163-16 16-16h4a6 6 0 0 1 0 12h-4zm49-31c0-8.284 6.716-15 15-15 4.143 0 7.888 1.675 10.607 4.393a3.999 3.999 0 0 0 5.656 0 3.998 3.998 0 0 0 0-5.657A22.938 22.938 0 0 0 96 36c-12.703 0-23 10.297-23 23s10.297 23 23 23 23-10.297 23-23a4 4 0 0 0-4-4H96a4 4 0 0 0 0 8h14.461C108.71 69.342 102.899 74 96 74c-8.284 0-15-6.716-15-15zm-25 93a6 6 0 0 1 6-6h68a6 6 0 1 1 0 12H62a6 6 0 0 1-6-6zm-8-14a8 8 0 1 0 0-16 8 8 0 0 0 0 16zm8-32a8 8 0 1 1-16 0 8 8 0 0 1 16 0zm16 32a8 8 0 1 0 0-16 8 8 0 0 0 0 16zm56-8a8 8 0 1 1-16 0 8 8 0 0 1 16 0zm16 8a8 8 0 1 0 0-16 8 8 0 0 0 0 16zm8-32a8 8 0 1 1-16 0 8 8 0 0 1 16 0zm-56 32a8 8 0 1 0 0-16 8 8 0 0 0 0 16z" fill="#000"/></svg>
